!!!!SEGMENT: Snf0102-Assumpta_est_Maria.krn
!!!id: Snf0102
!!!AGN: Motet
!!!SCT: Edwards, Gasch, Tröster (2021)
!!!voices: 4
!!!COM: Ludwig Senfl
!!!OTL: Assumpta est Maria
**kern	**text	**kern	**text	**kern	**text	**kern	**text
*part4	*part4	*part3	*part3	*part2	*part2	*part1	*part1
*staff4	*staff4	*staff3	*staff3	*staff2	*staff2	*staff1	*staff1
*I"Bassus	*	*I"Tenor	*	*I"Altus	*	*I"Superius	*
*I'B	*	*I'T	*	*I'A	*	*I'S	*
*clefF4	*	*clefGv2	*	*clefGv2	*	*clefG2	*
*	*	*	*	*	*	*	*
*k[]	*	*k[]	*	*k[]	*	*k[]	*
*	*	*	*	*	*	*	*
*M2/1	*	*M2/1	*	*M2/1	*	*M2/1	*
*met(C|)	*	*met(C|)	*	*met(C|)	*	*met(C|)	*
!!section: Prima pars: Assumpta est Maria
!!!OMD: Prima pars: Assumpta est Maria
=1	=1	=1	=1	=1	=1	=1	=1
0r	.	0r	.	1r	.	1d	As-
.	.	.	.	1G	As-	1d	-sum-
=2	=2	=2	=2	=2	=2	=2	=2
0r	.	0r	.	1G	-sum-	1d	-pta
.	.	.	.	1G	-pta	[1g	est
=3	=3	=3	=3	=3	=3	=3	=3
0r	.	0r	.	1.c	est	2g]	.
.	.	.	.	.	.	2g	Ma-
.	.	.	.	.	.	1a	-ri-
.	.	.	.	2c	Ma-	.	.
=4	=4	=4	=4	=4	=4	=4	=4
0r	.	0r	.	1d	-ri-	1b	-a
.	.	.	.	1e	-a	1g	in
=5	=5	=5	=5	=5	=5	=5	=5
1r	.	0r	.	1c	in	1a	cae-
1GG	As-	.	.	2d	cae-	2.g	.
.	.	.	.	[2e	.	.	.
.	.	.	.	.	.	4a	.
=6	=6	=6	=6	=6	=6	=6	=6
1GG	-sum-	1r	.	2e]	.	4b	.
.	.	.	.	.	.	4g	.
.	.	.	.	4d	.	1cc	.
.	.	.	.	4c	.	.	.
1GG	-pta	1G	As-	1d	.	.	.
.	.	.	.	.	.	2b	.
=7	=7	=7	=7	=7	=7	=7	=7
[0C	est	1G	-sum-	2c	-lum,	1cc	-lum,
.	.	.	.	2G	in	.	.
.	.	1G	-pta	2.c	cae-	2r	.
.	.	.	.	.	.	2g	as-
.	.	.	.	4d	.	.	.
=8	=8	=8	=8	=8	=8	=8	=8
0C]	.	0c	est	4e	.	2g	-sum-
.	.	.	.	4c	.	.	.
.	.	.	.	1e	.	2g	-pta
.	.	.	.	.	.	2cc	est
.	.	.	.	4d	.	2cc	Ma-
.	.	.	.	4c	.	.	.
=9	=9	=9	=9	=9	=9	=9	=9
0r	.	1r	.	1B	.	1dd	-ri-
.	.	1c	Ma-	1A	-lum,	1ee	-a
=10	=10	=10	=10	=10	=10	=10	=10
0r	.	0d	-ri-	2r	.	2a	in
.	.	.	.	2G	as-	2.dd	cae-
.	.	.	.	2G	-sum-	.	.
.	.	.	.	.	.	4cc	.
.	.	.	.	2G	-pta	4b	.
.	.	.	.	.	.	4a	.
=11	=11	=11	=11	=11	=11	=11	=11
0r	.	1e	-a	2c	est,	1g	.
.	.	.	.	2C	as-	.	.
.	.	1c	in	2C	-sum-	[1cc	.
.	.	.	.	2C	-pta	.	.
=12	=12	=12	=12	=12	=12	=12	=12
0r	.	0d	cae-	2F	est	2cc]	.
.	.	.	.	2F	Ma-	4b	.
.	.	.	.	.	.	4a	.
.	.	.	.	1G	-ri-	4b	.
.	.	.	.	.	.	4a	.
.	.	.	.	.	.	4g	.
.	.	.	.	.	.	4f	.
=13	=13	=13	=13	=13	=13	=13	=13
1r	.	0c	-lum:	2A	.	2e	.
.	.	.	.	2F	-a	2f	.
1C	Ma-	.	.	1G	in	1e	.
=14	=14	=14	=14	=14	=14	=14	=14
0D	-ri-	0r	.	1F	cae-	1d	-lum,
.	.	.	.	1f	.	2r	.
.	.	.	.	.	.	2dd	in
=15	=15	=15	=15	=15	=15	=15	=15
1E	-a	0r	.	0e	.	2cc	cae-
.	.	.	.	.	.	2b	.
1C	in	.	.	.	.	2a	.
.	.	.	.	.	.	2g	.
=16	=16	=16	=16	=16	=16	=16	=16
0D	cae-	0r	.	1A	-lum,	2.f	.
.	.	.	.	.	.	4e	.
.	.	.	.	1B	.	1d	.
=17	=17	=17	=17	=17	=17	=17	=17
[0C	-lum:	1r	.	1c	.	2e	-lum:
.	.	.	.	.	.	2cc	gau-
.	.	1c	gau-	2r	.	2g	-dent
.	.	.	.	[2e	as-	2a	.
=18	=18	=18	=18	=18	=18	=18	=18
0C_	.	1G	-dent	2e]	.	2.cc	an-
.	.	.	.	2e	-sum-	.	.
.	.	.	.	.	.	4cc	-ge-
.	.	1A	.	2e	-pta	1cc	-li,
.	.	.	.	2e	est,	.	.
=19	=19	=19	=19	=19	=19	=19	=19
0C]	.	1.c	an-	2e	as-	2r	.
.	.	.	.	2e	-sum-	2cc	[gau-
.	.	.	.	1e	-pta	2g	-dent
.	.	2c	-ge-	.	.	2a	.
=20	=20	=20	=20	=20	=20	=20	=20
1r	.	0c	-li,	1A	est	2.cc	an-
.	.	.	.	.	.	4cc	-ge-
1C	gau-	.	.	2r	.	2cc	-li,
.	.	.	.	2e	Ma-	2cc	an-
=21	=21	=21	=21	=21	=21	=21	=21
1GG	-dent	1r	.	2d	-ri-	4b	.
.	.	.	.	.	.	4a	.
.	.	.	.	2B	-a	4g	.
.	.	.	.	.	.	4f	.
1AA	.	1c	gau-	2c	in	1e	-ge-
.	.	.	.	2A	cae-	.	.
=22	=22	=22	=22	=22	=22	=22	=22
1.C	an-	1G	-dent	1E	-lum:	1e	-li,]
.	.	1A	.	[1e	gau-	2r	.
2C	-ge-	.	.	.	.	2cc	gau-
=23	=23	=23	=23	=23	=23	=23	=23
0C	-li,	1.c	an-	2e]	.	2g	-dent
.	.	.	.	2e	-dent,	2a	.
.	.	.	.	[1e	gau-	[1cc	an-
.	.	2c	-ge-	.	.	.	.
=24	=24	=24	=24	=24	=24	=24	=24
1r	.	0c	-li,	2e]	.	2cc]	.
.	.	.	.	2e	-dent,	2cc	-ge-
1C	lau-	.	.	1e	gau-	2cc	-li,
.	.	.	.	.	.	2cc	lau-
=25	=25	=25	=25	=25	=25	=25	=25
1D	-dan-	1r	.	1d	-dent,	2b	.
.	.	.	.	.	.	2.a	.
1E	.	1c	lau-	2r	.	.	.
.	.	.	.	.	.	4g	.
.	.	.	.	2c	an-	[2g	-dan-
=26	=26	=26	=26	=26	=26	=26	=26
0D	-tes,	0d	-dan-	2B	.	2g]	.
.	.	.	.	1A	-ge-	4f#i	.
.	.	.	.	.	.	4e	.
.	.	.	.	.	.	1f#i	.
.	.	.	.	4G	.	.	.
.	.	.	.	4F	.	.	.
=27	=27	=27	=27	=27	=27	=27	=27
1r	.	0e	.	0c	-li,	1g	-tes,
1C	be-	.	.	.	.	2a	lau-
.	.	.	.	.	.	[2g	-dan-
=28	=28	=28	=28	=28	=28	=28	=28
0BB	-ne-	0d	-tes	1r	.	2g]	.
.	.	.	.	.	.	4f	.
.	.	.	.	.	.	4e	.
.	.	.	.	2r	.	2d	.
.	.	.	.	2G	lau-	2g	.
=29	=29	=29	=29	=29	=29	=29	=29
0AA	.	0r	.	2A	-dan-	2f	.
.	.	.	.	4G	.	4e	.
.	.	.	.	4F	.	4d	.
.	.	.	.	1E	.	1c	.
=30	=30	=30	=30	=30	=30	=30	=30
0BB	-di-	0r	.	2D	-tes	0d	-tes,
.	.	.	.	2.G	be-	.	.
.	.	.	.	4A	.	.	.
.	.	.	.	2B	-ne-	.	.
=31	=31	=31	=31	=31	=31	=31	=31
0AA	-cunt	1r	.	4c	-di-	1r	.
.	.	.	.	4B	.	.	.
.	.	.	.	4A	.	.	.
.	.	.	.	4G	.	.	.
.	.	1c	be-	2.F#i	-cunt	1a	lau-
.	.	.	.	4E	.	.	.
=	=	=	=	=	=	=	=
*	*	*	*	*M3/3%2	*	*	*
*	*	*	*	*met(3)	*	*	*
*	*	*	*	*Xtuplet	*	*	*
0GG	Do-	0B	-ne-	3%2G	Do-	1b	-dan-
.	.	.	.	3%2E	.	.	.
.	.	.	.	.	.	1b	-tes
.	.	.	.	3%2D	-mi-	.	.
=32	=32	=32	=32	=32	=32	=32	=32
0FF	-mi-	0A	.	3%2F	-num,	1cc	be-
.	.	.	.	3%2C	.	.	.
.	.	.	.	.	.	1cc	-ne-
.	.	.	.	3%2F	.	.	.
=	=	=	=	=	=	=	=
*	*	*	*	*tuplet	*	*	*
*	*	*	*	*M2/1	*	*	*
*	*	*	*	*met(C|)	*	*	*
0GG	.	[0B	-di-	2D	be-	2b	-di-
.	.	.	.	2E	.	2g	-cunt
.	.	.	.	2D	-ne-	2.b	Do-
.	.	.	.	[2G	-di-	.	.
.	.	.	.	.	.	4cc	.
=33	=33	=33	=33	=33	=33	=33	=33
1GG	-num,	1B]	.	4G]	.	1dd	.
.	.	.	.	4A	.	.	.
.	.	.	.	2B	-cunt	.	.
1r	.	1A	-cunt	1c	Do-	2ee	.
.	.	.	.	.	.	2cc	.
=34	=34	=34	=34	=34	=34	=34	=34
2r	.	0G	Do-	2.B	-mi-	4dd	.
.	.	.	.	.	.	4cc	.
2GG	Do-	.	.	.	.	4b	.
.	.	.	.	4c	.	4a	.
2.BB	.	.	.	1d	-num,	2b	.
.	.	.	.	.	.	2b	-mi-
4C	.	.	.	.	.	.	.
=35	=35	=35	=35	=35	=35	=35	=35
1D	.	1F	-mi-	2r	.	1a	-num,
.	.	.	.	2D	be-	.	.
2E	.	1G	.	2C	.	1r	.
[2C	.	.	.	[2E	-ne-	.	.
=36	=36	=36	=36	=36	=36	=36	=36
4C]	.	1G	-num,	4E]	.	2r	.
4BB	.	.	.	4D	.	.	.
2GG	.	.	.	1G	-di-	2b	Do-
1AA	.	1r	.	.	.	2cc	.
.	.	.	.	2F#i	.	2a	.
=37	=37	=37	=37	=37	=37	=37	=37
1.GG	-mi-	2r	.	2G	-cunt	2.b	.
.	.	2G	Do-	2.B	Do-	.	.
.	.	.	.	.	.	4cc	.
.	.	2.B	.	.	.	[1dd	.
.	.	.	.	4c	.	.	.
[2G	.	.	.	2d	.	.	.
.	.	4c	.	.	.	.	.
=38	=38	=38	=38	=38	=38	=38	=38
1G]	.	1d	.	2B	.	2dd]	.
.	.	.	.	1G	.	2b	.
2C	.	2e	.	.	.	2cc	.
2F	.	[2c	.	2A	.	[2a	-mi-
=39	=39	=39	=39	=39	=39	=39	=39
1E	-num.	4c]	.	1c	-mi-	4a]	.
.	.	4B	.	.	.	4g	.
.	.	2G	.	.	.	1g	.
1D	.	1A	-mi-	1d	.	.	.
.	.	.	.	.	.	2f#i	.
=40	=40	=40	=40	=40	=40	=40	=40
[0GGl	.	[0Gl	-num.	0B	-num.	[0gl	-num.
=41	=41	=41	=41	=41	=41	=41	=41
00GG]	.	00G]	.	00dl	.	00g]	.
==	==	==	==	==	==	==	==
*-	*-	*-	*-	*-	*-	*-	*-
!!!system-decoration: [*]
!!!RDF**kern: i = editorial accidental
!!!RDF**kern: l = terminal long
!!!PTL: <i> New Senfl Edition: Motets for Four Voices (A-I) </i>
!!!PPR: Hollitzer Verlag
!!!PC#: Denkmäler der Tonkunst in Österreich 163.1
!!!PDT: 2021
!!!PED: Scott Lee Edwards, Stefan Gasch, and Sonja Tröster
!!!YEC: Copyright 2021 Denkmäler der Tonkunst in Österreich
!!!YEM: CC-BY-NC 4.0 (https://creativecommons.org/licenses/by-nc/4.0/legalcode)
!!!EED: Benjamin Ory
!!!EEV: 2023/10/21
!!!verovio: header true
!!!header-left: @{PTL}\n@{PED}, eds.\n@{PC#} (@{PDT})&nbsp;\n
!!!header-right:
!!!header-center:
